X:1
T:Curri Koun Dilich
M:3/4
L:1/8
R:Air
B:Samuel, Anne & Peter Thompson – The Hibernian Muse
B:(London, 1787, No.  56, pp. 34-35)
N:”A Collection of the most Favorite Compositions
N:of Carolan the Celebrated Irish Bard”
Z:AK/Fiddler’s Companion
K:G
B4 {e}^d2|e4 f2|g3a g2|{g}Tf4 e2|^d2 B2g2|{g}f4 e2|
^d2e2f2|e2E2E2|G3A G2|d3e d2|d2B2d2|(edefga)|
{e}d2{c}B2{A}G2|A3cB2|{A}TG3F E2|E6:|
|:g4a2|b4 c'2|a4g2|f2e2d2|g2f2e2|a2g2f2|
b2a2g2|f2Te2d2|g4a2|b3 c'bc'|{b}a4 g2|(fgfe) d2|
g2f2e2|a2g2f2|c’2b2{b}a2{a}|f2{g} e2{f}d2{e}|b2 (c'bag)|a2 (bagf)|
g2 (agfe)|f2 (gfed)|(bd'c'bag) |(ac'bagf)|(gbagfe)|(fagfed)|
e2E2E2|E2F2G2|G2A2B2|B2c2d2|d2F2F2|F2G2A2|
B2c2d2|e2E2E2|E2F2G2|G2A2 B2{c}|B3A B2|E6:|]

